file/conocophillips.svg

<svg clip-rule="evenodd" fill-rule="evenodd" stroke-linejoin="round" stroke-miterlimit="1.41421" viewBox="0 0 560 400" xmlns="http://www.w3.org/2000/svg"><g transform="matrix(.569429 0 0 .569429 79.8479 155)"><path d="m143.414 21.707c1.059-1.542 2.734-2.44 4.993-2.44 3.088 0 5.926 2.455 5.926 6.536 0 4.68-3.239 7.006-6.456 7.006-1.792 0-3.351-.671-4.109-1.844h-.053v6.827h-3.411v-13.857c0-1.65-.041-3.093-.106-4.351h2.996l.167 2.123zm-119.537 11.101c3.72 0 7.266-2.339 7.266-6.93 0-3.798-2.813-6.611-7.032-6.611-4.382 0-7.337 2.797-7.337 6.887 0 4.067 3.134 6.655 7.076 6.655h.027zm29.204 0c3.72 0 7.266-2.339 7.266-6.93 0-3.798-2.813-6.611-7.031-6.611-4.383 0-7.337 2.797-7.337 6.887 0 4.067 3.133 6.655 7.075 6.655h.027zm26.816 0c3.721 0 7.266-2.339 7.266-6.93 0-3.798-2.813-6.611-7.031-6.611-4.383 0-7.337 2.797-7.337 6.887 0 4.067 3.134 6.655 7.076 6.655h.026zm-63.764-3.561c-1.009.458-2.622.758-4.161.758-4.518 0-6.978-2.753-6.978-6.399 0-4.101 2.833-6.54 7.04-6.54 1.67 0 3.11.371 4.08.81l.771-2.671c-.761-.397-2.514-.901-4.991-.901-6.224 0-10.486 3.911-10.486 9.453 0 5.414 3.829 9.051 10.027 9.051 2.495 0 4.45-.5 5.307-.928zm138.781 2.604c1.075.556 2.577.957 4.322.957 3.734 0 5.567-1.816 5.567-4.081-.015-1.999-1.155-3.172-3.715-3.937-1.761-.53-2.485-.922-2.485-1.78 0-.827.702-1.374 1.923-1.374 1.292 0 2.491.499 3.051.806l.669-2.358c-.802-.443-2.19-.818-3.738-.818-3.24 0-5.215 1.814-5.215 4.099-.015 1.602 1.155 3.021 3.884 3.793 1.717.501 2.302.915 2.302 1.811 0 .817-.649 1.44-2.227 1.44-1.272 0-2.85-.538-3.65-1.03zm-82.678-2.288c-.713.288-1.642.578-2.958.578-2.389 0-4.352-1.488-4.352-4.138-.016-2.362 1.634-4.13 4.338-4.13 1.342 0 2.229.273 2.836.576l.628-2.523c-.877-.371-2.23-.659-3.585-.659-4.911 0-7.719 3.046-7.719 6.911 0 3.926 2.798 6.63 7.171 6.63 1.841 0 3.365-.391 4.132-.747zm53.69-16.054v18.981h-3.41v-18.981zm6.018 0v18.981h-3.411v-18.981zm5.753 6.075v12.906h-3.411v-12.906zm-17.523 0v12.906h-3.412v-12.906zm-84.764 2.077c.558-.991 2.058-2.395 4.467-2.395 2.282 0 5.017 1.375 5.017 5.82v7.404h-3.411v-6.981c0-2.04-.815-3.5-2.781-3.5-1.498 0-2.485 1.043-2.858 2.026-.106.262-.151.652-.151.99v7.465h-3.411v-9.001c0-1.502-.042-2.796-.107-3.905h2.985l.167 2.077zm70.13-.184h.053c.444-.66 1.058-1.232 1.796-1.6.702-.383 1.542-.61 2.396-.61 2.245 0 4.957 1.374 4.957 5.809v7.414h-3.411v-6.969c0-2.028-.804-3.5-2.811-3.5-1.456 0-2.444.978-2.828 1.908-.129.292-.152.618-.152.991v7.57h-3.411v-18.981h3.411zm-11.572-7.615c2.522.008 4.316.56 5.474 1.499 1.096.864 1.853 2.272 1.853 4.002 0 1.654-.538 3.1-1.589 4.061-1.401 1.318-3.518 1.95-6.104 1.95-.716 0-1.365-.04-1.865-.159v7.268h-3.381v-18.247c1.276-.2 3.05-.375 5.553-.375zm-40.83 16.512c2.025 0 3.65-1.558 3.65-4.371 0-2.081-1.089-4.304-3.605-4.304-2.549 0-3.699 2.117-3.699 4.361 0 2.587 1.53 4.314 3.627 4.314zm26.816 0c2.025 0 3.651-1.558 3.651-4.371 0-2.081-1.089-4.304-3.605-4.304-2.55 0-3.7 2.117-3.7 4.361 0 2.587 1.531 4.314 3.628 4.314zm-56.02 0c2.025 0 3.65-1.558 3.65-4.371 0-2.081-1.089-4.304-3.605-4.304-2.549 0-3.699 2.117-3.699 4.361 0 2.587 1.53 4.314 3.627 4.314zm119.781-5.028c0-.253.057-.527.119-.781.398-1.627 1.835-2.669 3.387-2.669 2.366 0 3.642 1.9 3.642 4.095 0 2.617-1.458 4.233-3.741 4.233-1.691 0-3.001-1.187-3.335-2.537-.049-.273-.073-.542-.073-.826v-1.515zm-51.978-8.741c.379-.076 1.127-.163 2.191-.163 2.377 0 3.986.94 3.986 3.004 0 2.108-1.641 3.303-4.273 3.303-.796 0-1.419-.049-1.904-.183zm26.733.979c1.251 0 2.007-.858 2.007-1.878-.015-1.033-.768-1.865-1.995-1.865-1.229 0-2.008.844-2.008 1.865 0 1.02.756 1.878 1.969 1.878zm17.524 0c1.251 0 2.007-.858 2.007-1.878-.015-1.033-.767-1.865-1.996-1.865-1.228 0-2.007.844-2.007 1.865 0 1.02.756 1.878 1.969 1.878z" transform="matrix(4.30243 0 0 4.30243 -6.05976 -4.54483)"/><path d="m439.082 0c-19.863 6.898-25.074 13.732-35.797 22.342-30.383 7.998-57.014-4.83-80.193-15.422 10.955 7.912 21.789 24.729 26.367 48.564 17.514-5.256 38.607-19.43 57.178-32.67 10.41-4.615 21.828-11.427 32.445-22.814z" fill="#ef3e42"/></g></svg>

<?xml version="1.0" encoding="UTF-8" standalone="no"?>
<!DOCTYPE svg PUBLIC "-//W3C//DTD SVG 1.1//EN" "http://www.w3.org/Graphics/SVG/1.1/DTD/svg11.dtd">
<svg width="100%" height="100%" viewBox="0 0 560 400" version="1.1" xmlns="http://www.w3.org/2000/svg" xmlns:xlink="http://www.w3.org/1999/xlink" xml:space="preserve" xmlns:serif="http://www.serif.com/" style="fill-rule:evenodd;clip-rule:evenodd;stroke-linejoin:round;stroke-miterlimit:1.41421;">
    <g transform="matrix(0.569429,0,0,0.569429,79.8479,155)">
        <g id="path2386" transform="matrix(4.30243,0,0,4.30243,-6.05976,-4.54483)">
            <path d="M143.414,21.707C144.473,20.165 146.148,19.267 148.407,19.267C151.495,19.267 154.333,21.722 154.333,25.803C154.333,30.483 151.094,32.809 147.877,32.809C146.085,32.809 144.526,32.138 143.768,30.965L143.715,30.965L143.715,37.792L140.304,37.792L140.304,23.935C140.304,22.285 140.263,20.842 140.198,19.584L143.194,19.584L143.361,21.707L143.414,21.707ZM23.877,32.808C27.597,32.808 31.143,30.469 31.143,25.878C31.143,22.08 28.33,19.267 24.111,19.267C19.729,19.267 16.774,22.064 16.774,26.154C16.774,30.221 19.908,32.809 23.85,32.809L23.877,32.809L23.877,32.808ZM53.081,32.808C56.801,32.808 60.347,30.469 60.347,25.878C60.347,22.08 57.534,19.267 53.316,19.267C48.933,19.267 45.979,22.064 45.979,26.154C45.979,30.221 49.112,32.809 53.054,32.809L53.081,32.809L53.081,32.808ZM79.897,32.808C83.618,32.808 87.163,30.469 87.163,25.878C87.163,22.08 84.35,19.267 80.132,19.267C75.749,19.267 72.795,22.064 72.795,26.154C72.795,30.221 75.929,32.809 79.871,32.809L79.897,32.809L79.897,32.808ZM16.133,29.247C15.124,29.705 13.511,30.005 11.972,30.005C7.454,30.005 4.994,27.252 4.994,23.606C4.994,19.505 7.827,17.066 12.034,17.066C13.704,17.066 15.144,17.437 16.114,17.876L16.885,15.205C16.124,14.808 14.371,14.304 11.894,14.304C5.67,14.304 1.408,18.215 1.408,23.757C1.408,29.171 5.237,32.808 11.435,32.808C13.93,32.808 15.885,32.308 16.742,31.88L16.133,29.247ZM154.914,31.851C155.989,32.407 157.491,32.808 159.236,32.808C162.97,32.808 164.803,30.992 164.803,28.727C164.788,26.728 163.648,25.555 161.088,24.79C159.327,24.26 158.603,23.868 158.603,23.01C158.603,22.183 159.305,21.636 160.526,21.636C161.818,21.636 163.017,22.135 163.577,22.442L164.246,20.084C163.444,19.641 162.056,19.266 160.508,19.266C157.268,19.266 155.293,21.08 155.293,23.365C155.278,24.967 156.448,26.386 159.177,27.158C160.894,27.659 161.479,28.073 161.479,28.969C161.479,29.786 160.83,30.409 159.252,30.409C157.98,30.409 156.402,29.871 155.602,29.379L154.914,31.851ZM72.236,29.563C71.523,29.851 70.594,30.141 69.278,30.141C66.889,30.141 64.926,28.653 64.926,26.003C64.91,23.641 66.56,21.873 69.264,21.873C70.606,21.873 71.493,22.146 72.1,22.449L72.728,19.926C71.851,19.555 70.498,19.267 69.143,19.267C64.232,19.267 61.424,22.313 61.424,26.178C61.424,30.104 64.222,32.808 68.595,32.808C70.436,32.808 71.96,32.417 72.727,32.061L72.236,29.563ZM125.926,13.509L125.926,32.49L122.516,32.49L122.516,13.509L125.926,13.509ZM131.944,13.509L131.944,32.49L128.533,32.49L128.533,13.509L131.944,13.509ZM137.697,19.584L137.697,32.49L134.286,32.49L134.286,19.584L137.697,19.584ZM120.174,19.584L120.174,32.49L116.762,32.49L116.762,19.584L120.174,19.584ZM35.41,21.661C35.968,20.67 37.468,19.266 39.877,19.266C42.159,19.266 44.894,20.641 44.894,25.086L44.894,32.49L41.483,32.49L41.483,25.509C41.483,23.469 40.668,22.009 38.702,22.009C37.204,22.009 36.217,23.052 35.844,24.035C35.738,24.297 35.693,24.687 35.693,25.025L35.693,32.49L32.282,32.49L32.282,23.489C32.282,21.987 32.24,20.693 32.175,19.584L35.16,19.584L35.327,21.661L35.41,21.661ZM105.54,21.477L105.593,21.477C106.037,20.817 106.651,20.245 107.389,19.877C108.091,19.494 108.931,19.267 109.785,19.267C112.03,19.267 114.742,20.641 114.742,25.076L114.742,32.49L111.331,32.49L111.331,25.521C111.331,23.493 110.527,22.021 108.52,22.021C107.064,22.021 106.076,22.999 105.692,23.929C105.563,24.221 105.54,24.547 105.54,24.92L105.54,32.49L102.129,32.49L102.129,13.509L105.54,13.509L105.54,21.477ZM93.968,13.862C96.49,13.87 98.284,14.422 99.442,15.361C100.538,16.225 101.295,17.633 101.295,19.363C101.295,21.017 100.757,22.463 99.706,23.424C98.305,24.742 96.188,25.374 93.602,25.374C92.886,25.374 92.237,25.334 91.737,25.215L91.737,32.483L88.356,32.483L88.356,14.236C89.632,14.036 91.406,13.861 93.909,13.861L93.968,13.862ZM53.138,30.374C55.163,30.374 56.788,28.816 56.788,26.003C56.788,23.922 55.699,21.699 53.183,21.699C50.634,21.699 49.484,23.816 49.484,26.06C49.484,28.647 51.014,30.374 53.111,30.374L53.138,30.374ZM79.954,30.374C81.979,30.374 83.605,28.816 83.605,26.003C83.605,23.922 82.516,21.699 80,21.699C77.45,21.699 76.3,23.816 76.3,26.06C76.3,28.647 77.831,30.374 79.928,30.374L79.954,30.374ZM23.934,30.374C25.959,30.374 27.584,28.816 27.584,26.003C27.584,23.922 26.495,21.699 23.979,21.699C21.43,21.699 20.28,23.816 20.28,26.06C20.28,28.647 21.81,30.374 23.907,30.374L23.934,30.374ZM143.715,25.346C143.715,25.093 143.772,24.819 143.834,24.565C144.232,22.938 145.669,21.896 147.221,21.896C149.587,21.896 150.863,23.796 150.863,25.991C150.863,28.608 149.405,30.224 147.122,30.224C145.431,30.224 144.121,29.037 143.787,27.687C143.738,27.414 143.714,27.145 143.714,26.861L143.714,25.346L143.715,25.346ZM91.737,16.605C92.116,16.529 92.864,16.442 93.928,16.442C96.305,16.442 97.914,17.382 97.914,19.446C97.914,21.554 96.273,22.749 93.641,22.749C92.845,22.749 92.222,22.7 91.737,22.566L91.737,16.605ZM118.47,17.584C119.721,17.584 120.477,16.726 120.477,15.706C120.462,14.673 119.709,13.841 118.482,13.841C117.253,13.841 116.474,14.685 116.474,15.706C116.474,16.726 117.23,17.584 118.443,17.584L118.47,17.584ZM135.994,17.584C137.245,17.584 138.001,16.726 138.001,15.706C137.986,14.673 137.234,13.841 136.005,13.841C134.777,13.841 133.998,14.685 133.998,15.706C133.998,16.726 134.754,17.584 135.967,17.584L135.994,17.584Z"/>
        </g>
        <path id="path2414" d="M439.082,0C419.219,6.898 414.008,13.732 403.285,22.342C372.902,30.34 346.271,17.512 323.092,6.92C334.047,14.832 344.881,31.649 349.459,55.484C366.973,50.228 388.066,36.054 406.637,22.814C417.047,18.199 428.465,11.387 439.082,0Z" style="fill:rgb(239,62,66);"/>
    </g>
</svg>
